svg/set/V17/R.svg

<?xml version="1.0" encoding="UTF-8" standalone="no"?>
<svg
   version="1.1"
   x="0px"
   y="0px"
   width="897.03436"
   height="896.9975"
   id="svg10"
   xmlns="http://www.w3.org/2000/svg"
   xmlns:svg="http://www.w3.org/2000/svg">
  <defs
     id="defs10" />
  <linearGradient
     id="SVGID_1_"
     gradientUnits="userSpaceOnUse"
     x1="128.9473"
     y1="631.98779"
     x2="766.98962"
     y2="263.61389"
     gradientTransform="translate(-0.0015233,-5.856273e-4)">
    <stop
       offset="0.05"
       style="stop-color:#8F743F"
       id="stop1" />
    <stop
       offset="0.1444"
       style="stop-color:#AC9259"
       id="stop2" />
    <stop
       offset="0.3"
       style="stop-color:#DBC383"
       id="stop3" />
    <stop
       offset="0.424"
       style="stop-color:#E7D08D"
       id="stop4" />
    <stop
       offset="0.5"
       style="stop-color:#EBD491"
       id="stop5" />
    <stop
       offset="0.576"
       style="stop-color:#E7D08D"
       id="stop6" />
    <stop
       offset="0.7"
       style="stop-color:#DBC383"
       id="stop7" />
    <stop
       offset="0.8556"
       style="stop-color:#AC9259"
       id="stop8" />
    <stop
       offset="0.95"
       style="stop-color:#8F743F"
       id="stop9" />
  </linearGradient>
  <path
     fill="url(#SVGID_1_)"
     d="m 813.22748,411.32141 c -6.372,-78.866 -40.577,-154.232 -93.27,-212.961 0.193,0.125 0.39,0.248 0.583,0.373 -15.12,-17.244 -31.949,-32.702 -50.092,-46.347 -10.752,-8.282 -21.967,-15.968 -33.608,-22.976 0.203,0.327 0.414,0.652 0.62,0.979 -101.454,-59.626996 -232.563,-69.086996 -340.473,-20.051 -101.97,45.244 -180.912,139.135 -206.446003,247.891 -11.067,41.047 -8.806,84.031 -7.835,126.049 6.373,78.866 40.577003,154.232 93.271003,212.962 -0.194,-0.125 -0.39,-0.248 -0.583,-0.373 15.119,17.244 31.95,32.702 50.092,46.348 10.752,8.282 21.967,15.968 33.608,22.976 -0.204,-0.326 -0.414,-0.653 -0.621,-0.979 101.456,59.627 232.565,69.087 340.474,20.05 101.971,-45.244 180.912,-139.135 206.446,-247.892 11.065,-41.047 8.805,-84.032 7.834,-126.049 z"
     id="path9"
     style="fill:url(#SVGID_1_)" />
  <path
     d="m 373.28348,5.9994144 c 95.199,-14.961 196.078,-2.402 281.84,42.8789996 114.16,57.437996 200.559,166.960996 229.598,291.437996 23.441,101.281 13.84,210.961 -32.48,304.563 -60.398,125.598 -182.637,219.438 -319.918,244.48 -115.359,21.277 -239.281,-2 -336.48,-68.563 -72.641,-50.32 -131.840003,-121.117 -164.160003,-203.68 -52,-130.641 -39.8400003,-285.68 35.359,-404.957 C 133.44348,103.83841 247.84148,26.475414 373.28348,5.9994144 Z m -74.801,107.6789956 c -100.961,44.797 -179.121,137.758 -204.402003,245.438 -10.957,40.641 -8.719,83.199 -7.758,124.801 9.199,113.84 76.961003,220.32 174.641003,279.121 -12.16,-19.52 -31.359,-38.242 -28.723,-63.281 1.203,-33.52 36.961,-52.16 66.961,-53.52 55.441,-6.398 104.402,26.32 145.281,59.762 -34.961,-106.242 -157.359,-174.16 -266.082,-155.121 47.922,-37.52 107.762,-59.52 168.883,-60 80.078,-0.563 157.117,29.281 224.719,70.559 -71.68,-113.68 -200.801,-181.52 -330.242,-205.918 24.563,-13.84 54.16,-11.359 81.441,-14.082 144.801,1.039 279.922,63.441 402.801,134.723 -80,-137.523 -222.082,-226.961 -370.48,-274.883 141.281,-14.078 282.48,34.402 399.359,111.602 -49.199,-74.16 -120.559,-132.082 -200.879,-169.68 59.281,-1.199 115.039,26.559 163.84,58 -101.36,-115.602996 -279.923,-150.883996 -419.36,-87.521 z"
     id="path10" />
</svg>

<?xml version="1.0" encoding="utf-8"?>
<svg xmlns="http://www.w3.org/2000/svg" xmlns:xlink="http://www.w3.org/1999/xlink" version="1.1" x="0px" y="0px" width="897.035px" height="896.997px">
  <linearGradient id="SVGID_1_" gradientUnits="userSpaceOnUse" x1="128.9473" y1="631.9878" x2="766.9896" y2="263.6139">
    <stop offset="0.05" style="stop-color:#8F743F"/>
    <stop offset="0.1444" style="stop-color:#AC9259"/>
    <stop offset="0.3" style="stop-color:#DBC383"/>
    <stop offset="0.424" style="stop-color:#E7D08D"/>
    <stop offset="0.5" style="stop-color:#EBD491"/>
    <stop offset="0.576" style="stop-color:#E7D08D"/>
    <stop offset="0.7" style="stop-color:#DBC383"/>
    <stop offset="0.8556" style="stop-color:#AC9259"/>
    <stop offset="0.95" style="stop-color:#8F743F"/>
  </linearGradient>
  <path fill="url(#SVGID_1_)" d="M813.229,411.322c-6.372-78.866-40.577-154.232-93.27-212.961c0.193,0.125,0.39,0.248,0.583,0.373  c-15.12-17.244-31.949-32.702-50.092-46.347c-10.752-8.282-21.967-15.968-33.608-22.976c0.203,0.327,0.414,0.652,0.62,0.979  c-101.454-59.627-232.563-69.087-340.473-20.051C195.019,155.583,116.077,249.474,90.543,358.23  c-11.067,41.047-8.806,84.031-7.835,126.049c6.373,78.866,40.577,154.232,93.271,212.962c-0.194-0.125-0.39-0.248-0.583-0.373  c15.119,17.244,31.95,32.702,50.092,46.348c10.752,8.282,21.967,15.968,33.608,22.976c-0.204-0.326-0.414-0.653-0.621-0.979  c101.456,59.627,232.565,69.087,340.474,20.05c101.971-45.244,180.912-139.135,206.446-247.892  C816.46,496.324,814.2,453.339,813.229,411.322z"/>
  <path d="m 373.285,6 c 95.199,-14.961 196.078,-2.402 281.84,42.879 114.16,57.438 200.559,166.961 229.598,291.438 23.441,101.281 13.84,210.961 -32.48,304.563 -60.398,125.598 -182.637,219.438 -319.918,244.48 -115.359,21.277 -239.281,-2 -336.48,-68.563 C 123.204,770.477 64.005,699.68 31.685,617.117 -20.315,486.476 -8.155,331.437 67.044,212.16 133.445,103.839 247.843,26.476 373.285,6 Z M 298.484,113.679 C 197.523,158.476 119.363,251.437 94.082,359.117 c -10.957,40.641 -8.719,83.199 -7.758,124.801 9.199,113.84 76.961,220.32 174.641,279.121 -12.16,-19.52 -31.359,-38.242 -28.723,-63.281 1.203,-33.52 36.961,-52.16 66.961,-53.52 C 354.644,639.84 403.605,672.558 444.484,706 409.523,599.758 287.125,531.84 178.402,550.879 c 47.922,-37.52 107.762,-59.52 168.883,-60 80.078,-0.563 157.117,29.281 224.719,70.559 -71.68,-113.68 -200.801,-181.52 -330.242,-205.918 24.563,-13.84 54.16,-11.359 81.441,-14.082 144.801,1.039 279.922,63.441 402.801,134.723 C 646.004,338.638 503.922,249.2 355.524,201.278 496.805,187.2 638.004,235.68 754.883,312.88 705.684,238.72 634.324,180.798 554.004,143.2 c 59.281,-1.199 115.039,26.559 163.84,58 C 616.484,85.597 437.921,50.316 298.484,113.679 Z"/>
</svg>
